app/renderer/assets/image/components/lightSensor.svg

<?xml version="1.0" encoding="UTF-8"?>
<svg width="150px" height="150px" viewBox="0 0 150 150" version="1.1" xmlns="http://www.w3.org/2000/svg" xmlns:xlink="http://www.w3.org/1999/xlink">
    <!-- Generator: Sketch 46.1 (44463) - http://www.bohemiancoding.com/sketch -->
    <title>lightSensor</title>
    <desc>Created with Sketch.</desc>
    <defs></defs>
    <g id="Page-1" stroke="none" stroke-width="1" fill="none" fill-rule="evenodd">
        <g id="lightSensor" fill-rule="nonzero">
            <path d="M121.783328,107 L121.783328,78.1981132 C121.783328,76.3726415 121.375535,75.7641509 120.967742,75.3584906 L120.967742,75.3584906 C120.559949,74.9528302 119.948259,74.5471698 117.909294,74.5471698 L117.909294,74.5471698 L31.2532737,74.5471698 C30.0298946,74.5471698 29.418205,74.75 29.010412,74.75 L29.010412,74.75 C28.8065155,74.75 28.8065155,74.9528302 28.8065155,74.75 L28.8065155,74.75 C28.8065155,74.75 28.8065155,74.75 28.602619,74.9528302 L28.602619,74.9528302 C28.602619,75.3584906 28.3987225,75.9669811 28.3987225,76.7783019 L28.3987225,76.7783019 L28.3987225,106.59434 L28.3987225,106.59434 L18,106.59434 L18,76.7783019 C18,73.3301887 18.8155861,69.8820755 21.4662408,67.245283 L21.4662408,67.245283 C24.1168956,64.6084906 27.7870329,64 31.2532737,64 L31.2532737,64 L117.909294,64 C121.783328,64 125.657362,65.2169811 128.308017,67.8537736 L128.308017,67.8537736 C130.958671,70.490566 132.18205,74.3443396 131.978154,77.7924528 L131.978154,77.7924528 L131.978154,106.59434 L121.783328,107 L121.783328,107 Z" id="path3011" fill="#9EA5AD"></path>
            <path d="M41,70.5 C41,80.9767442 45.6938776,90.4263566 52.8367347,97 L99.1632653,97 C106.510204,90.6317829 111,81.1821705 111,70.5 C111,60.0232558 106.306122,50.5736434 99.1632653,44 L52.8367347,44 C45.6938776,50.3682171 41,59.8178295 41,70.5 Z" id="path3013" fill="#384149"></path>
            <rect id="rect3015" fill="#434D54" x="52" y="44" width="47" height="53"></rect>
            <path d="M98.9915966,91.9915966 C98.9915966,91.9915966 87.8991597,93 76,93 C64.1008403,93 53.0084034,91.9915966 53.0084034,91.9915966 C53.0084034,91.9915966 52,80.8991597 52,69 C52,57.1008403 53.0084034,46.0084034 53.0084034,46.0084034 C53.0084034,46.0084034 64.1008403,45 76,45 C87.8991597,45 98.9915966,46.0084034 98.9915966,46.0084034 C98.9915966,46.0084034 100,57.1008403 100,69 C100,80.697479 98.9915966,91.9915966 98.9915966,91.9915966 Z" id="path3017" fill="#BAC1CC"></path>
            <path d="M95,49.6118721 L94.8,48.8082192 L94,48.6073059 C94,48.6073059 84.8,47 74.6,47 C69.4,47 64.4,47.4018265 61.2,47.803653 C58,48.2054795 56.2,48.4063927 55.4,48.6073059 C55.2,48.6073059 55,48.6073059 54.8,48.8082192 C54.6,49.0091324 54.4,49.2100457 54.4,49.4109589 C54.2,50.2146119 53.8,52.0228311 53.6,55.4383562 C53.4,58.0502283 53,63.0730594 53,68.8995434 C53,78.9452055 54.6,88.1872146 54.6,88.3881279 L54.8,89.1917808 L55.6,89.3926941 C55.6,89.3926941 64.8,91 75,91 C85,91 94.2,89.3926941 94.4,89.3926941 L95.2,89.1917808 L95.4,88.3881279 C95.4,88.3881279 97,79.1461187 97,68.8995434 C97,58.652968 95,49.6118721 95,49.6118721 Z M56.6,87.1826484 C56.2,84.7716895 55.2,77.1369863 55.2,69.1004566 C55.2,60.6621005 56,53.0273973 56.4,51.0182648 C57.2,50.8173516 58.8,50.6164384 61,50.4155251 C61,50.6164384 61,50.8173516 61,51.0182648 C61,52.4246575 61.8,54.8356164 62,55.2374429 C62.2,55.8401826 62.8,56.0410959 63.4,56.0410959 C63.4,56.0410959 68.8,54.8356164 74.8,54.8356164 C80.4,54.8356164 85.4,55.8401826 86,55.8401826 C86,55.8401826 86,55.8401826 86,56.0410959 C86,56.4429224 85.8,57.2465753 85.6,58.0502283 C84.2,57.8493151 81.8,57.4474886 78.8,57.4474886 C74.6,57.4474886 70.6,58.2511416 70.4,58.2511416 C70,58.2511416 69.8,58.4520548 69.6,58.8538813 C69.6,59.0547945 69.2,59.8584475 69.2,61.2648402 C69.2,62.6712329 69.6,64.4794521 69.6,64.4794521 C69.6,64.8812785 69.8,65.0821918 70.2,65.283105 C70.4,65.4840183 70.8,65.4840183 71.2,65.4840183 C71.2,65.4840183 73,65.0821918 75,65.0821918 C76.2,65.0821918 77.4,65.283105 78,65.283105 C78,65.6849315 78.2,65.8858447 78.2,66.4885845 C78.2,66.890411 78.2,67.4931507 78,67.8949772 L75,67.8949772 L71,67.8949772 C70.4,67.8949772 70,68.2968037 69.8,68.8995434 C69.8,68.8995434 69.4,70.3059361 69.4,71.7123288 C69.4,73.1187215 69.8,74.1232877 69.8,74.3242009 C70,74.7260274 70.2,75.1278539 70.8,75.1278539 C70.8,75.1278539 72.8,75.5296804 75,75.5296804 C76.2,75.5296804 77.2,75.5296804 78,75.3287671 C78,75.9315068 78.2,76.3333333 78.2,76.9360731 C78.2,77.3378995 78.2,77.5388128 78.2,77.739726 C76.8,77.9406393 74,78.3424658 71,78.3424658 C67,78.3424658 63.8,77.5388128 63.8,77.5388128 C63.4,77.3378995 62.8,77.5388128 62.6,77.9406393 C62.4,78.1415525 61.4,79.5479452 61.4,81.1552511 C61.4,82.7625571 62.4,84.1689498 62.6,84.369863 C62.8,84.5707763 63,84.7716895 63.4,84.7716895 C63.6,84.7716895 69,85.9771689 75.2,85.9771689 C79.8,85.9771689 84,85.3744292 86,84.9726027 C86.2,85.7762557 86.6,86.7808219 86.6,87.3835616 C86.6,87.7853881 86.4,87.9863014 86.4,88.1872146 C83.2,88.3881279 79.4,88.7899543 75.4,88.7899543 C66.6,88.5890411 59,87.5844749 56.6,87.1826484 Z M92.6,87.1826484 C91.8,87.3835616 90.2,87.5844749 88.2,87.7853881 C88.2,87.5844749 88.2,87.3835616 88.2,87.1826484 C88.2,85.7762557 87.4,83.3652968 87.2,82.9634703 C87,82.3607306 86.4,82.1598174 85.8,82.1598174 C85.8,82.1598174 80.4,83.3652968 74.4,83.3652968 C69.4,83.3652968 65,82.5616438 63.6,82.3607306 C63.4,81.9589041 63.2,81.5570776 63.2,81.1552511 C63.2,80.7534247 63.4,80.3515982 63.4,80.1506849 C64.6,80.3515982 67.2,80.7534247 70.2,80.7534247 C74.4,80.7534247 78.4,79.9497717 78.6,79.9497717 C79,79.9497717 79.2,79.7488584 79.4,79.347032 C79.4,79.1461187 79.8,78.3424658 79.8,76.9360731 C79.8,75.5296804 79.4,73.7214612 79.4,73.7214612 C79.4,73.3196347 79.2,73.1187215 78.8,72.9178082 C78.6,72.716895 78.2,72.716895 77.8,72.716895 C77.8,72.716895 76,73.1187215 74,73.1187215 C72.8,73.1187215 71.6,72.9178082 71,72.9178082 C71,72.5159817 70.8,72.3150685 70.8,71.7123288 C70.8,71.3105023 70.8,70.7077626 71,70.3059361 L74,70.3059361 L78,70.3059361 C78.6,70.3059361 79,69.9041096 79.2,69.3013699 C79.2,69.3013699 79.6,67.8949772 79.6,66.4885845 C79.6,65.0821918 79.2,64.0776256 79.2,63.8767123 C79,63.4748858 78.8,63.0730594 78.2,63.0730594 C78.2,63.0730594 76.2,62.6712329 74,62.6712329 C72.8,62.6712329 71.8,62.8721461 71,62.8721461 C71,62.2694064 70.8,61.8675799 70.8,61.2648402 C70.8,60.8630137 70.8,60.6621005 70.8,60.4611872 C72.2,60.260274 75,59.8584475 78,59.8584475 C82,59.8584475 85.2,60.6621005 85.2,60.6621005 C85.8,60.8630137 86.4,60.4611872 86.6,60.0593607 C86.6,59.8584475 87.6,57.6484018 87.6,56.2420091 C87.6,54.43379 86.4,53.630137 85.8,53.630137 C85.6,53.630137 80.2,52.4246575 74,52.4246575 C69.4,52.4246575 65.2,53.0273973 63.2,53.4292237 C63,52.6255708 62.6,51.6210046 62.6,51.0182648 C62.6,50.6164384 62.8,50.4155251 62.8,50.2146119 C66,50.0136986 69.8,49.6118721 73.8,49.6118721 C81.8,49.6118721 89.4,50.6164384 91.8,51.0182648 C92.2,53.4292237 93.2,61.0639269 93.2,69.1004566 C94,77.1369863 93,84.5707763 92.6,87.1826484 Z" id="path3019" fill="#E55555"></path>
            <circle id="circle3021" fill="#818791" cx="47.5" cy="69.5" r="6.5"></circle>
            <circle id="circle3023" fill="#818791" cx="103.5" cy="69.5" r="6.5"></circle>
            <path d="M99.1632653,44 L52.8367347,44 C45.4897959,50.3682171 41,59.8178295 41,70.5 C41,80.9767442 45.6938776,90.4263566 52.8367347,97 L99.1632653,97 C106.510204,90.6317829 111,81.1821705 111,70.5 C111,59.8178295 106.306122,50.3682171 99.1632653,44 Z M74.4693878,90.6317829 C62.4285714,90.6317829 52.8367347,80.9767442 52.8367347,68.8565891 C52.8367347,56.9418605 62.4285714,47.0813953 74.4693878,47.0813953 C86.5102041,47.0813953 96.1020408,56.7364341 96.1020408,68.8565891 C96.1020408,80.9767442 86.5102041,90.6317829 74.4693878,90.6317829 Z" id="path3025" fill="#7E8184" opacity="0.3"></path>
            <circle id="circle3027" fill="#FFFFFF" opacity="0.798629982" cx="68" cy="60" r="6"></circle>
        </g>
    </g>
</svg>

<svg width="150" height="150" xmlns="http://www.w3.org/2000/svg"><g fill="none"><path d="M121.783 107V78.198c0-1.825-.407-2.434-.815-2.84-.408-.405-1.02-.81-3.059-.81H31.253c-1.223 0-1.835.202-2.243.202-.203 0-.203.203-.203 0l-.204.203c0 .405-.204 1.014-.204 1.825v29.816H18V76.778c0-3.448.816-6.896 3.466-9.533C24.116 64.608 27.787 64 31.253 64h86.656c3.874 0 7.748 1.217 10.399 3.854 2.65 2.637 3.874 6.49 3.67 9.938v28.802l-10.195.406z" fill="#9EA5AD"/><path d="M41 70.5c0 10.477 4.694 19.926 11.837 26.5h46.326C106.51 90.632 111 81.182 111 70.5c0-10.477-4.694-19.926-11.837-26.5H52.837A35.437 35.437 0 0 0 41 70.5z" fill="#384149"/><path fill="#434D54" d="M52 44h47v53H52z"/><path d="M98.992 91.992S87.899 93 76 93c-11.9 0-22.992-1.008-22.992-1.008S52 80.899 52 69c0-11.9 1.008-22.992 1.008-22.992S64.101 45 76 45c11.9 0 22.992 1.008 22.992 1.008S100 57.101 100 69c0 11.697-1.008 22.992-1.008 22.992z" fill="#BAC1CC"/><path d="M95 49.612l-.2-.804-.8-.2S84.8 47 74.6 47c-5.2 0-10.2.402-13.4.804-3.2.401-5 .602-5.8.803-.2 0-.4 0-.6.201-.2.201-.4.402-.4.603-.2.804-.6 2.612-.8 6.027-.2 2.612-.6 7.635-.6 13.462 0 10.045 1.6 19.287 1.6 19.488l.2.804.8.2S64.8 91 75 91c10 0 19.2-1.607 19.4-1.607l.8-.201.2-.804S97 79.146 97 68.9c0-10.247-2-19.288-2-19.288zm-38.4 37.57c-.4-2.41-1.4-10.045-1.4-18.082 0-8.438.8-16.073 1.2-18.082.8-.2 2.4-.402 4.6-.602v.602c0 1.407.8 3.818 1 4.22.2.602.8.803 1.4.803 0 0 5.4-1.205 11.4-1.205 5.6 0 10.6 1.004 11.2 1.004v.201c0 .402-.2 1.206-.4 2.01-1.4-.202-3.8-.604-6.8-.604-4.2 0-8.2.804-8.4.804-.4 0-.6.201-.8.603 0 .2-.4 1.004-.4 2.41 0 1.407.4 3.215.4 3.215 0 .402.2.603.6.804.2.201.6.201 1 .201 0 0 1.8-.402 3.8-.402 1.2 0 2.4.201 3 .201 0 .402.2.603.2 1.206 0 .401 0 1.004-.2 1.406h-7c-.6 0-1 .402-1.2 1.005 0 0-.4 1.406-.4 2.812 0 1.407.4 2.411.4 2.612.2.402.4.804 1 .804 0 0 2 .402 4.2.402 1.2 0 2.2 0 3-.201 0 .603.2 1.004.2 1.607v.804c-1.4.2-4.2.602-7.2.602-4 0-7.2-.803-7.2-.803-.4-.201-1 0-1.2.402-.2.2-1.2 1.607-1.2 3.214 0 1.608 1 3.014 1.2 3.215.2.2.4.402.8.402.2 0 5.6 1.205 11.8 1.205 4.6 0 8.8-.603 10.8-1.004.2.803.6 1.808.6 2.41 0 .402-.2.603-.2.804-3.2.201-7 .603-11 .603-8.8-.201-16.4-1.206-18.8-1.607zm36 0c-.8.202-2.4.402-4.4.603v-.602c0-1.407-.8-3.818-1-4.22-.2-.602-.8-.803-1.4-.803 0 0-5.4 1.205-11.4 1.205-5 0-9.4-.803-10.8-1.004-.2-.402-.4-.804-.4-1.206 0-.402.2-.803.2-1.004 1.2.2 3.8.602 6.8.602 4.2 0 8.2-.803 8.4-.803.4 0 .6-.201.8-.603 0-.2.4-1.005.4-2.41 0-1.407-.4-3.216-.4-3.216 0-.401-.2-.602-.6-.803-.2-.201-.6-.201-1-.201 0 0-1.8.402-3.8.402-1.2 0-2.4-.201-3-.201 0-.402-.2-.603-.2-1.206 0-.401 0-1.004.2-1.406h7c.6 0 1-.402 1.2-1.005 0 0 .4-1.406.4-2.812 0-1.407-.4-2.411-.4-2.612-.2-.402-.4-.804-1-.804 0 0-2-.402-4.2-.402-1.2 0-2.2.201-3 .201 0-.603-.2-1.004-.2-1.607v-.804c1.4-.2 4.2-.603 7.2-.603 4 0 7.2.804 7.2.804.6.201 1.2-.2 1.4-.603 0-.2 1-2.41 1-3.817 0-1.808-1.2-2.612-1.8-2.612-.2 0-5.6-1.205-11.8-1.205-4.6 0-8.8.602-10.8 1.004-.2-.803-.6-1.808-.6-2.41 0-.403.2-.603.2-.804 3.2-.201 7-.603 11-.603 8 0 15.6 1.004 18 1.406.4 2.411 1.4 10.046 1.4 18.082.8 8.037-.2 15.47-.6 18.083z" fill="#E55555"/><circle fill="#818791" cx="47.5" cy="69.5" r="6.5"/><circle fill="#818791" cx="103.5" cy="69.5" r="6.5"/><path d="M99.163 44H52.837C45.49 50.368 41 59.818 41 70.5c0 10.477 4.694 19.926 11.837 26.5h46.326C106.51 90.632 111 81.182 111 70.5A35.437 35.437 0 0 0 99.163 44zM74.47 90.632c-12.04 0-21.632-9.655-21.632-21.775 0-11.915 9.592-21.776 21.632-21.776 12.041 0 21.633 9.655 21.633 21.776 0 12.12-9.592 21.775-21.633 21.775z" fill="#7E8184" opacity=".3"/><circle fill="#FFF" opacity=".799" cx="68" cy="60" r="6"/></g></svg>
